svg/fluentui-system-icons/ic_fluent_info_48_regular.svg

<svg width="48" height="48" viewBox="0 0 48 48" fill="none" xmlns="http://www.w3.org/2000/svg">
<path d="M24 6.5C14.335 6.5 6.5 14.335 6.5 24C6.5 33.665 14.335 41.5 24 41.5C33.665 41.5 41.5 33.665 41.5 24C41.5 14.335 33.665 6.5 24 6.5ZM4 24C4 12.9543 12.9543 4 24 4C35.0457 4 44 12.9543 44 24C44 35.0457 35.0457 44 24 44C12.9543 44 4 35.0457 4 24ZM24 20C24.6904 20 25.25 20.5596 25.25 21.25V33.75C25.25 34.4404 24.6904 35 24 35C23.3096 35 22.75 34.4404 22.75 33.75V21.25C22.75 20.5596 23.3096 20 24 20ZM24 17C25.1046 17 26 16.1046 26 15C26 13.8954 25.1046 13 24 13C22.8954 13 22 13.8954 22 15C22 16.1046 22.8954 17 24 17Z" fill="#212121"/>
</svg>

<svg xmlns="http://www.w3.org/2000/svg" width="48" height="48"><path d="M24 6.5C14.335 6.5 6.5 14.335 6.5 24S14.335 41.5 24 41.5 41.5 33.665 41.5 24 33.665 6.5 24 6.5ZM4 24C4 12.954 12.954 4 24 4s20 8.954 20 20-8.954 20-20 20S4 35.046 4 24Zm20-4c.69 0 1.25.56 1.25 1.25v12.5a1.25 1.25 0 1 1-2.5 0v-12.5c0-.69.56-1.25 1.25-1.25Zm0-3a2 2 0 1 0 0-4 2 2 0 0 0 0 4Z"/></svg>
